image/footer-icons/facebook.svg

<svg width="21" height="20" viewBox="0 0 21 20" fill="none" xmlns="http://www.w3.org/2000/svg">
<path d="M10.9639 0C5.44132 0 0.963867 4.50448 0.963867 10.0604C0.963867 15.081 4.62023 19.2424 9.40171 20V12.9691H6.86146V10.0604H9.40171V7.84385C9.40171 5.32046 10.8949 3.92897 13.1781 3.92897C14.2722 3.92897 15.4183 4.12516 15.4183 4.12516V6.59926H14.1542C12.9141 6.59926 12.526 7.37599 12.526 8.17185V10.0584H15.2973L14.8543 12.9671H12.526V19.998C17.3075 19.2444 20.9639 15.082 20.9639 10.0604C20.9639 4.50448 16.4864 0 10.9639 0Z" fill="white"/>
</svg>

<svg fill="none" height="20" width="21" xmlns="http://www.w3.org/2000/svg"><path d="M10.964 0c-5.523 0-10 4.504-10 10.06 0 5.021 3.656 9.182 8.438 9.94v-7.03h-2.54v-2.91h2.54V7.844c0-2.524 1.493-3.915 3.776-3.915 1.094 0 2.24.196 2.24.196V6.6h-1.264c-1.24 0-1.628.777-1.628 1.573v1.886h2.771l-.443 2.91h-2.328v7.03c4.782-.754 8.438-4.916 8.438-9.938 0-5.556-4.478-10.06-10-10.06z" fill="#fff"/></svg>
